public/img/15.svg

<svg width="326" height="275" viewBox="0 0 326 275" fill="none" xmlns="http://www.w3.org/2000/svg">
<g opacity="0.7">
<g clip-path="url(#clip0)">
<mask id="mask0" mask-type="alpha" maskUnits="userSpaceOnUse" x="-10" y="-71" width="536" height="535">
<path fill-rule="evenodd" clip-rule="evenodd" d="M83.3149 171.282C80.4897 179.59 78.1737 188.048 76.337 196.488L185.219 88.7548C183.197 88.7233 181.174 88.6735 179.154 88.6238C175.856 88.5427 172.565 88.4617 169.299 88.4609L83.3149 171.282ZM92.3439 149.034L152.022 89.6954C143.542 91.173 135.454 94.2953 128.09 100.656C112.978 113.707 101.191 130.546 92.3439 149.034ZM196.967 88.5955L73.1219 214.47C72.3155 220.058 71.5968 225.733 71.0076 231.44L219.374 83.9344C212.172 86.9673 204.632 88.1774 196.967 88.5955ZM256.119 47.4022L324.661 -20.7423C321.594 -20.6628 318.466 -20.2931 315.276 -19.6041C293.033 -14.7991 279.668 7.87222 265.917 31.1987C262.711 36.637 259.484 42.1108 256.119 47.4022ZM336.767 -19.5422L69.9537 243.775C69.5186 250.306 69.2909 256.832 69.3322 263.275L343.162 -17.665C341.067 -18.4232 338.935 -19.0531 336.767 -19.5422ZM350.903 -14.2109L69.7352 275.162C69.9277 278.206 70.1919 281.219 70.5344 284.194L362.187 -6.78C358.575 -9.62704 354.812 -12.1346 350.903 -14.2109ZM365.909 -3.68215L72.184 295.062C73.0252 299.46 74.0718 303.741 75.3487 307.873L377.231 7.81439C373.659 3.67651 369.882 -0.200213 365.909 -3.68215ZM386.248 19.3455L78.2511 316.013C80.188 320.758 82.4878 325.255 85.1954 329.446L391.207 26.6615C389.616 24.1956 387.962 21.7502 386.248 19.3455ZM394.326 31.6435L92.274 338.645C92.4189 338.804 92.5646 338.961 92.7111 339.118C94.8058 341.364 97.0234 343.429 99.3516 345.322L401.678 44.7482C401.307 43.9825 400.919 43.2231 400.514 42.4705C398.586 38.8895 396.522 35.2595 394.326 31.6435ZM404.765 52.3552L104.083 348.837C108.421 351.776 113.075 354.207 117.978 356.183L406.735 59.4214C406.189 57.0226 405.537 54.6655 404.765 52.3552ZM408.305 68.4828L126.504 359.104C129.165 359.866 131.882 360.516 134.645 361.061L409.267 87.1236C409.302 80.7573 409.056 74.518 408.305 68.4828ZM409.113 94.541L145.265 362.631C150.005 363.114 154.842 363.334 159.733 363.325L407.948 116.522C408.042 114.891 408.14 113.262 408.237 111.634C408.58 105.896 408.922 100.181 409.113 94.541ZM407.191 136.23L171.91 362.856C179.552 362.295 187.243 361.255 194.829 359.857L407.541 149.389C407.251 145.049 407.157 140.655 407.191 136.23ZM408.474 158.033L214.775 354.906C229.382 349.036 241.457 336.267 253.623 323.402C266.099 310.209 278.67 296.916 294.161 290.862L412.032 173.674C410.527 168.437 409.282 163.215 408.474 158.033ZM415.078 183.406L310.019 287.088C314.941 286.555 319.942 286.515 324.98 286.785L417.872 191.481C416.918 188.792 415.978 186.099 415.078 183.406ZM423.887 208.455L345.49 289.14C347.532 289.455 349.57 289.781 351.601 290.107C353.577 290.423 355.548 290.738 357.509 291.042L427.799 220.915C426.649 216.795 425.313 212.638 423.887 208.455ZM430.013 229.997L368.502 292.559C374.962 293.297 381.266 293.665 387.313 293.245L431.624 249.202C432.013 242.96 431.344 236.54 430.013 229.997Z" fill="white"/>
</mask>
<g mask="url(#mask0)">
<path d="M136.633 109.636H119.438V83.7531H168.308V185.113H188.58V210.453H116.904V185.113H136.633V109.636ZM233.393 111.265V127.012C237.978 126.771 241.417 126.65 243.71 126.65C275.566 127.253 291.494 141.432 291.494 169.185C291.494 180.769 287.512 190.965 279.548 199.774C271.704 208.583 260.844 212.987 246.968 212.987C234.418 212.987 224.041 209.246 215.836 201.765C207.751 194.284 203.588 184.329 203.347 171.9H232.126C232.246 180.105 236.952 184.208 246.244 184.208C250.467 184.208 253.846 182.82 256.38 180.045C258.914 177.149 260.181 173.529 260.181 169.185C260.181 158.204 251.131 152.352 233.031 151.628C228.807 151.507 225.429 151.507 222.895 151.628C220.481 151.628 217.404 151.809 213.664 152.171C210.044 152.412 207.63 152.533 206.424 152.533V83.7531H285.521V111.265H233.393Z" fill="white"/>
</g>
</g>
</g>
<defs>
<clipPath id="clip0">
<rect x="0.397461" width="325.24" height="274.079" fill="white"/>
</clipPath>
</defs>
</svg>

<svg width="326" height="275" fill="none" xmlns="http://www.w3.org/2000/svg"><g clip-path="url(#clip0)" opacity=".7"><mask id="a" maskUnits="userSpaceOnUse" x="-10" y="-71" width="536" height="535"><path fill-rule="evenodd" clip-rule="evenodd" d="M83.315 171.282c-2.825 8.308-5.141 16.766-6.978 25.206L185.219 88.755a680.037 680.037 0 01-6.065-.131c-3.298-.081-6.589-.162-9.855-.163l-85.984 82.821zm9.029-22.248l59.678-59.339c-8.48 1.478-16.568 4.6-23.932 10.961-15.112 13.051-26.899 29.89-35.746 48.378zm104.623-60.438L73.122 214.47a423.426 423.426 0 00-2.114 16.97L219.374 83.934c-7.202 3.033-14.742 4.243-22.407 4.662zm59.152-41.194l68.542-68.144a50.57 50.57 0 00-9.385 1.138c-22.243 4.805-35.608 27.476-49.359 50.803-3.206 5.438-6.433 10.912-9.798 16.203zm80.648-66.944L69.954 243.775c-.435 6.531-.663 13.057-.622 19.5l273.83-280.94a53.167 53.167 0 00-6.395-1.877zm14.136 5.331L69.735 275.162c.193 3.044.457 6.057.8 9.032L362.186-6.78c-3.612-2.847-7.375-5.355-11.284-7.43zm15.006 10.529L72.184 295.062c.841 4.398 1.888 8.679 3.165 12.811L377.23 7.814c-3.572-4.137-7.349-8.014-11.322-11.496zm20.339 23.027L78.251 316.014c1.937 4.745 4.237 9.242 6.944 13.433L391.207 26.661a191.27 191.27 0 00-4.959-7.316zm8.078 12.299l-302.052 307a66.037 66.037 0 007.078 6.677L401.678 44.748a60.192 60.192 0 00-1.164-2.277 240.777 240.777 0 00-6.188-10.827zm10.439 20.711L104.083 348.837c4.338 2.939 8.992 5.37 13.895 7.346L406.735 59.421a74.33 74.33 0 00-1.97-7.066zm3.54 16.128L126.504 359.104a99.555 99.555 0 008.141 1.957L409.267 87.124c.035-6.367-.211-12.606-.962-18.641zm.808 26.058l-263.848 268.09c4.74.483 9.577.703 14.468.694l248.215-246.803c.094-1.631.192-3.26.289-4.888.343-5.738.685-11.453.876-17.093zm-1.922 41.689L171.91 362.856c7.642-.561 15.333-1.601 22.919-2.999l212.712-210.468c-.29-4.34-.384-8.734-.35-13.159zm1.283 21.803L214.775 354.906c14.607-5.87 26.682-18.639 38.848-31.504 12.476-13.193 25.047-26.486 40.538-32.54l117.871-117.188c-1.505-5.237-2.75-10.459-3.558-15.641zm6.604 25.373L310.019 287.088c4.922-.533 9.923-.573 14.961-.303l92.892-95.304a465 465 0 01-2.794-8.075zm8.809 25.049L345.49 289.14c2.042.315 4.08.641 6.111.967 1.976.316 3.947.631 5.908.935l70.29-70.127c-1.15-4.12-2.486-8.277-3.912-12.46zm6.126 21.542l-61.511 62.562c6.46.738 12.764 1.106 18.811.686l44.311-44.043c.389-6.242-.28-12.662-1.611-19.205z" fill="#fff"/></mask><g mask="url(#a)"><path d="M136.633 109.636h-17.195V83.753h48.87v101.36h20.272v25.34h-71.676v-25.34h19.729v-75.477zm96.76 1.629v15.747c4.585-.241 8.024-.362 10.317-.362 31.856.603 47.784 14.782 47.784 42.535 0 11.584-3.982 21.78-11.946 30.589-7.844 8.809-18.704 13.213-32.58 13.213-12.55 0-22.927-3.741-31.132-11.222-8.085-7.481-12.248-17.436-12.489-29.865h28.779c.12 8.205 4.826 12.308 14.118 12.308 4.223 0 7.602-1.388 10.136-4.163 2.534-2.896 3.801-6.516 3.801-10.86 0-10.981-9.05-16.833-27.15-17.557-4.224-.121-7.602-.121-10.136 0-2.414 0-5.491.181-9.231.543-3.62.241-6.034.362-7.24.362v-68.78h79.097v27.512h-52.128z" fill="#fff"/></g></g><defs><clipPath id="clip0"><path fill="#fff" d="M.397 0h325.24v274.079H.397z"/></clipPath></defs></svg>
